sources/resources/icons/32/misc/warning.svg

<svg width="32" height="32" viewBox="0 0 32 32" fill="none" xmlns="http://www.w3.org/2000/svg">
<path d="M16.75 10.75C16.75 10.3358 16.4142 10 16 10C15.5858 10 15.25 10.3358 15.25 10.75V19.25C15.25 19.6642 15.5858 20 16 20C16.4142 20 16.75 19.6642 16.75 19.25V10.75Z" fill="white"/>
<path d="M16 25C16.5523 25 17 24.5523 17 24C17 23.4477 16.5523 23 16 23C15.4477 23 15 23.4477 15 24C15 24.5523 15.4477 25 16 25Z" fill="white"/>
<path fill-rule="evenodd" clip-rule="evenodd" d="M12.4389 2.20483L0.429392 26.2024C-0.902217 28.8633 1.02448 32 3.99049 32H28.0095C30.9755 32 32.9022 28.8633 31.5706 26.2024L19.5611 2.20483C18.0899 -0.734944 13.9101 -0.734943 12.4389 2.20483ZM1.32366 26.65L13.3332 2.65236C14.4357 0.449212 17.5643 0.449212 18.6668 2.65236L30.6763 26.65C31.6781 28.6517 30.2255 31 28.0095 31H3.99049C1.77453 31 0.321886 28.6517 1.32366 26.65Z" fill="white"/>
</svg>

<svg viewBox="0 0 32 32" xmlns="http://www.w3.org/2000/svg"><path d="m16.8 10.8c0-0.414-0.336-0.75-0.75-0.75s-0.75 0.336-0.75 0.75v8.5c0 0.414 0.336 0.75 0.75 0.75s0.75-0.336 0.75-0.75v-8.5z" fill="#000"/><path d="m16 25c0.552 0 1-0.448 1-1s-0.448-1-1-1-1 0.448-1 1 0.448 1 1 1z" fill="#000"/><path d="m12.4 2.2-12 24c-1.33 2.66 0.595 5.8 3.56 5.8h24c2.97 0 4.89-3.14 3.56-5.8l-12-24c-1.47-2.94-5.65-2.94-7.12 0zm-11.1 24.4 12-24c1.1-2.2 4.23-2.2 5.33 0l12 24c1 2-0.451 4.35-2.67 4.35h-24c-2.22 0-3.67-2.35-2.67-4.35z" clip-rule="evenodd" fill="#000" fill-rule="evenodd"/></svg>
